X: 559
T: Shandingshang gaimiao haixian di
L: 1/8
M: 2/4
K: A
e d e e/ f/ [I:setbarnb 1]| 
B BE2 | 
e d e e/ f/ | 
E4 | 
f de2 | 
B BE2 | 
e e/ d/ B e | 
A4 |]

@@@ Tune index: 9433
